X:1
T:The Constellations Suite
T:Tom Brier Neil Blaze
T:The Constellations Suite Part III: Cassiopeia
C:Tom Brier
C:Neil Blaze
%%score { ( 1 2 ) | 3 }
L:1/8
Q:1/4=85
M:3/4
K:C#min
V:1 treble nm="Piano" snm="Pno."
V:2 treble 
V:3 bass 
V:1
"^Andante moderato" g a2 f e2 | d f2 d ^B2 | c e2 f e2 | d4 G2 |:[Q:1/4=100]"^Andante" g a2 g fe | %5
 d g2 f d^B | c e2 c Ac | B3 E Gc | c B2 F Ac | c B2 e- ef | e d2 ^A- Ad | c ^B2 d- dG | %12
 g a2 g fe | d g2 f d^B | c e2 c Ac | c ^e2 c eg | g f2 c- cf | f e2 c- ce | ed ^Ae- ed |1 %19
 [EGc]4 G2 :|2 [EGc]4 cd |: c B2 d fa | [ac'] [gb]2 B gb | [gb] [fa]2 B fa | [fa] [eg]2 e cd | %25
 c B2 d fa | [ac'] [gb]2 [eg] [fa][gb] | [^^f^a] [ac']2 d ^ef | [^Bdg]3 g fd | [df] [ce]2 e dc | %30
 [ce] [^Bd]2 g fd | [df] [ce]2 g [^ec']g | b a2 ^e fg | a [A=c]2 [Ac] [B=d][Ac] | [GB] [eg]2 e fg | %35
 [fa] [Ac]2 [Bdg]2 [Af] |1 [GBe]3 B cd :|2 [GBe]4 G2 || g a2 g fe | d g2 f d^B | c e2 c Ac | %41
 B3 E Gc | c B2 F Ac | c B2 e- ef | e d2 ^A- Ad | c ^B2 d- dG | g a2 g fe | d g2 f d^B | %48
 c e2 c Ac | c ^e2 c eg | g f2 c- cf | f e2 c- ce | ed ^Ae- ed | [EGc]4 G2 |:[K:C#] c e2 c- ce | %55
 e f2 A- Ad | c B2 e- ed | [EAc]4 [EAd]2 | e d2 e- ed | d c2 d- dc | c B2 B- BA | %61
 [B,DG]2 [C^^EA]2 [DFGB]2 | c e2 c- ce | e f2 A- Ad | c B2 e- ed | [EAc]4 [EAd]2 | d c2 e- ed | %67
 d c2 =B- BA | [DF] [df]2 [Ad]- [Ad][Be] |1 [EGc]2 ed cB :|2 [EGc]4 G2 ||[K:C#min] g a2 g fe | %72
 d g2 f d^B | c e2 c Ac | B3 E Gc | c B2 F Ac | c B2 e- ef | e d2 ^A- Ad | c ^B2 d- dG | %79
 g a2 g fe | d g2 f d^B | c e2 c Ac | c ^e2 c eg | g f2 c- cf | f e2 c- ce | ed ^Ae- ed | %86
 [EGc]3 E Gc ||"_dim." B A2 F- FA |[Q:1/4=93]"^rit." A G2 E- EC |[Q:1/4=85] E3 E- ED | %90
[Q:1/4=80] [E,G,C]6 |] %91
V:2
 [CEG]6 | [^B,FG]6 | [CE=G]6 | [^B,FG]6 |: [ce]6 | [F^B]6 | [EA]6 | [EG]6 | [DA]6 | %9
 [EG]3 [Gc]- [Gc]2 | [^^F^A]6 | F6 | [ce]6 | [F^B]6 | [EA]6 | [^EB]6 | [Ac]6 | [Gc]6 | %18
 [^^Fc]3 [^F^B]- [FB]2 |1 x6 :|2 x6 |: x6 | x6 | x6 | x6 | x6 | x6 | x4 c2 | x6 | G4 x2 | %30
 x4 [G^B]2 | G4 x2 | [cf]4 x2 | x6 | x6 | x6 |1 x6 :|2 x6 || [ce]6 | [F^B]6 | [EA]6 | [EG]6 | %42
 [DA]6 | [EG]3 [Gc]- [Gc]2 | [^^F^A]6 | F6 | [ce]6 | [F^B]6 | [EA]6 | [^EB]6 | [Ac]3 A- A2 | %51
 [Gc]3 G- G2 | [^^Fc]3 [^F^B]- [FB]2 | x6 |:[K:C#] G3 G- G2 | [FA]3 F- F2 | F3 [FB]- [FB]2 | x6 | %58
 [^^FA]3 [^FB]- [FB]2 | [EG]3 [=EGA]- [EGA]2 | [DG]3 [CD^^F]- [CDF]2 | x6 | [EG]3 [EG]- [EG]2 | %63
 [FA]3 F- F2 | F3 [FB]- [FB]2 | x6 | [FA]3 [F=A]- [FA]2 | [EA]3 [=D=F]- [DF]2 | x6 |1 %69
 x2 [FA]2 F2 :|2 x6 ||[K:C#min] [ce]6 | [F^B]6 | [EA]6 | [EG]6 | [DA]6 | [EG]3 [Gc]- [Gc]2 | %77
 [^^F^A]3 F- F2 | F6 | [ce]6 | [F^B]6 | [EA]6 | [^EB]6 | [Ac]3 A- A2 | [Gc]3 G- G2 | %85
 [^^Fc]3 [^F^B]- [FB]2 | x6 || [CF]3 C- C2 | [CE]3 x3 | z ^A,2 ^B,- B,2 | x6 |] %91
V:3
!ped! x6!ped-up! |!ped! x6!ped-up! |!ped! x6!ped-up! |!ped! z2 G,,3 C,,-!ped-up! |: %4
!ped! [C,,C,]2 [G,CE]2 [G,CE]2!ped-up! |!ped! [G,,,G,,]2 [G,^B,D]2 [G,B,D]2!ped-up! | %6
!ped! [A,,,A,,]2 [E,A,C]2 [C,,C,][D,,D,]!ped-up! |!ped! [E,,E,]2 [E,G,B,]2 [G,,G,]F,,-!ped-up! | %8
!ped! [F,,F,]2 [D,F,A,B,]2 [B,,,B,,]2!ped-up! |!ped! [E,,E,]2 [D,,D,]2 [C,,C,]2!ped-up! | %10
!ped! [D,,D,]2 [D,^^F,C]2 [^^F,,F,]2!ped-up! |!ped! [G,,G,]2 [G,,,G,,]3 C,,-!ped-up! | %12
!ped! [C,,C,]2 [G,CE]2 [G,CE]2!ped-up! |!ped! [G,,,G,,]2 [G,^B,D]2 [G,B,D]2!ped-up! | %14
!ped! [A,,,A,,]2 [E,A,C]2 [C,,C,][D,,D,]!ped-up! |!ped! [^E,,^E,]2 [E,G,B,C]2 [G,,G,]F,,-!ped-up! | %16
!ped! [F,,F,]2 [A,CF]2 [A,CF]2!ped-up! |!ped! [G,,G,]2 [G,CE]2 [G,CE]2!ped-up! | %18
!ped! [^A,,^A,]2 [D,^^F,C]2 [^B,,^B,]2!ped-up! |1!ped! [C,C]2 [G,,G,]3 C,,!ped-up! :|2 %20
!ped! [C,C]2 [C,,C,]3 D,,-!ped-up! |:!ped! [D,,D,]2 [F,A,B,D]2 [B,,,B,,]2!ped-up! | %22
!ped! [E,,E,]2 [G,B,E]2 [B,,,B,,]2!ped-up! |!ped! [D,,D,]2 [F,A,B,D]2 [B,,,B,,]2!ped-up! | %24
!ped! [E,,E,]2 [G,B,E]2 [B,,,B,,]2!ped-up! |!ped! [D,,D,]2 [F,A,B,D]2 [B,,,B,,]2!ped-up! | %26
!ped! [E,,E,]2 [G,B,E]2 [E,,E,]2!ped-up! |!ped! [D,,D,]2 [D,^^F,C]2 [D,,D,]G,,-!ped-up! | %28
!ped! [G,,G,]2 !>![G,,,G,,]4!ped-up! |!ped! [C,,C,]2 [G,CE]2 [C,,C,]^B,,,-!ped-up! | %30
!ped! [B,,,^B,,]2 [G,^B,F]2 [G,,,G,,]C,,-!ped-up! |!ped! [C,,C,]2 [G,CE]2 [^E,,^E,]F,,-!ped-up! | %32
!ped! [F,,F,]2 [A,CF]2 [C,C][B,,B,]!ped-up! |!ped! [A,,A,]2 [A,=CE]2 [A,CE]2!ped-up! | %34
!ped! [B,,B,]2 [G,B,E]2 [E,,E,]2!ped-up! |!ped! [F,,F,]2 [F,A,C]2 [B,,B,]2!ped-up! |1 %36
!ped! [E,,E,]2 [E,,,E,,]4!ped-up! :|2!ped! [E,,E,]2 [E,,,E,,]4!ped-up! || %38
!ped! [C,,C,]2 [G,CE]2 [G,CE]2!ped-up! |!ped! [G,,,G,,]2 [G,^B,D]2 [G,B,D]2!ped-up! | %40
!ped! [A,,,A,,]2 [E,A,C]2 [C,,C,][D,,D,]!ped-up! |!ped! [E,,E,]2 [E,G,B,]2 [G,,G,]F,,-!ped-up! | %42
!ped! [F,,F,]2 [D,F,A,B,]2 [B,,,B,,]2!ped-up! |!ped! [E,,E,]2 [D,,D,]2 [C,,C,]2!ped-up! | %44
!ped! [D,,D,]2 [D,^^F,C]2 [^^F,,F,]2!ped-up! |!ped! [G,,G,]2 [G,,,G,,]4!ped-up! | %46
!ped! [C,,C,]2 [G,CE]2 [G,CE]2!ped-up! |!ped! [G,,,G,,]2 [G,^B,D]2 [G,B,D]2!ped-up! | %48
!ped! [A,,,A,,]2 [E,A,C]2 [C,,C,][D,,D,]!ped-up! |!ped! [^E,,^E,]2 [E,G,B,C]2 [G,,G,]F,,-!ped-up! | %50
!ped! [F,,F,]2 [A,CF]2 [A,CF]2!ped-up! |!ped! [G,,G,]2 [G,CE]2 [G,CE]2!ped-up! | %52
!ped! [^A,,^A,]2 [D,^^F,C]2 [G,,G,]2!ped-up! |!ped! [C,C]2 C,,3 C,,-!ped-up! |: %54
[K:C#]!ped! [C,,G,,E,]2 [E,G,C]2 [E,G,C]2!ped-up! |!ped! [F,,C,F,]2 [F,A,D]2 [F,A,D]2!ped-up! | %56
!ped! [G,,F,]2 [G,B,D]2 [^^G,,F,]2!ped-up! |!ped! [A,,E,]2 [E,A,C]2 [G,,G,]^^F,,-!ped-up! | %58
!ped! [F,,^^F,]2 [F,A,CD]2 [^F,,^F,]2!ped-up! |!ped! [E,,E,]2 [E,G,C]2 [=E,,=E,]D,,-!ped-up! | %60
!ped! [D,,D,]2 [D,G,B,]2 [C,,C,]2!ped-up! |!ped! [B,,,B,,]2 [A,,,A,,]2 [G,,,G,,]C,,-!ped-up! | %62
!ped! [C,,G,,E,]2 [E,G,C]2 [E,G,C]2!ped-up! |!ped! [F,,C,F,]2 [F,A,D]2 [F,A,D]2!ped-up! | %64
!ped! [G,,F,]2 [G,B,D]2 [^^G,,F,]2!ped-up! |!ped! [A,,E,]2 [E,A,C]2 [G,,G,]2!ped-up! | %66
!ped! [F,,F,]2 [F,=A,C]2 [=A,,A,]2!ped-up! |!ped! [A,,A,]2 [E,A,C]2 [A,,,A,,]2!ped-up! | %68
!ped! [D,,D,]2 [F,,F,]2 [G,,G,]2!ped-up! |1!ped! [C,C]2 [D,,D,]2 [G,,G,]C,,!ped-up! :|2 %70
!ped! [C,C]2 [G,,G,]3 C,,-!ped-up! ||[K:C#min]!ped! [C,,G,,E,]2 [G,CE]2 [G,CE]2!ped-up! | %72
!ped! [G,,,G,,]2 [G,^B,D]2 [G,B,D]2!ped-up! |!ped! [A,,,A,,]2 [E,A,C]2 [C,,C,][D,,D,]!ped-up! | %74
!ped! [E,,E,]2 [E,G,B,]2 [G,,G,]F,,-!ped-up! |!ped! [F,,F,]2 [D,F,A,B,]2 [B,,,B,,]2!ped-up! | %76
!ped! [E,,E,]2 [D,,D,]2 [C,,C,]2!ped-up! |!ped! [D,,D,]2 [D,^^F,C]2 [^^F,,F,]2!ped-up! | %78
!ped! [G,,G,]2 [G,,,G,,]3 C,,-!ped-up! |!ped! [C,,C,]2 [G,CE]2 [G,CE]2!ped-up! | %80
!ped! [G,,,G,,]2 [G,^B,D]2 [G,B,D]2!ped-up! |!ped! [A,,,A,,]2 [E,A,C]2 [C,,C,][D,,D,]!ped-up! | %82
!ped! [^E,,^E,]2 [E,G,B,C]2 [G,,G,]F,,-!ped-up! |!ped! [F,,F,]2 [A,CF]2 [A,CF]2!ped-up! | %84
!ped! [G,,G,]2 [G,CE]2 [G,CE]2!ped-up! |!ped! [^A,,^A,]2 [D,^^F,C]2 [G,,G,]2!ped-up! | %86
!ped! [C,C]2 [C,,C,]4!ped-up! ||!ped! F,,2 [C,F,A,]2 [C,F,A,]2!ped-up! | %88
!ped! G,,2 [E,G,]2 [E,G,]2!ped-up! |!ped! ^A,,4 G,,2!ped-up! |!ped! C,2 !fermata!C,,4!ped-up! |] %91

